X: 07042
T: GENES' HORNPIPE
C: Bob McQuillen 17 Nov 84
B: Bob's Note Book 7 #42
%R: hornpipe, reel
Z: 2020 John Chambers <jc:trillian.mit.edu>
M: C
L: 1/8
K: D	% and A
fg \
| a2bf afde | fege fdAF | GBAG FAdf | afdf e2ef |\
| a2bf afde | f2ge fdAF | GBed cAeg | f2d2 d2 :|
K: A
|: ed \
| cea2 a2ed | cdef e2ed | cAce dfed | cABc B2ed |\
| ceab afed | cdef ecAc | dBce defg | a2A2 A2 :|
%%begintext align
%% Just your simple
%% everyday genetic reel in D'N'A. With
%% thanks to that wonderful gang at Walker's
%% annual bash in Thetford Cener, VT. OH! Those
%% clams and oysters!
%%endtext
%%begintext align
%% P.S. And special thanks to Matt Fichtenbaum - he named this tune!
%%endtext

%%sep 1 1 500

%%sep 1 1 500

